www/images/zoom.svg

<svg fill="none" height="75" viewBox="0 0 75 75" width="75" xmlns="http://www.w3.org/2000/svg"><path d="m53.1169 16.2355-19.1319 19.1189c-.0011.0011-.0022.0021-.0033.0032-.1114.109-.2163.2243-.3142.3453l-17.3963 17.3843v-16.3491c0-2.2085-1.7907-3.9927-3.9947-3.9927h-.0034l-.0493.0002-.0071.0001c-2.1826.0305-3.93833 1.8063-3.93833 3.9926v25.5417c-.01823.1491-.02837.3125-.02837.4773 0 2.2085 1.7908 3.9927 3.9949 3.9927h.0055c.0251 0 .0795.0001.1418-.0051.1108-.0042.2205-.0131.329-.0268h25.5568c2.2088 0 3.9949-1.7888 3.9949-3.9927 0-2.2084-1.7908-3.9926-3.9949-3.9926h-16.3598l19.1381-19.125.0003-.0003c.1049-.105.204-.2157.2968-.3314l17.4104-17.3985v16.3456c0 2.2087 1.7908 3.9926 3.9949 3.9926h.0461v.0001l.012-.0002c2.177-.0348 3.9332-1.8054 3.9332-3.9925v-26.0053c0-.0934-.0053-.1852-.0109-.2623h.0003v-.039-.0278l-.0021-.0278c-.0091-.1217-.026-.2248-.0388-.3013-.0109-.0739-.0229-.1286-.0348-.1759l-.0006.0001c-.0834-.3726-.2108-.6981-.3668-.9974l-.0016.0007c-.013-.0248-.0248-.0459-.0354-.0643l-.0154-.026-.0035-.0058-.0007-.0013-.0025.0012-.0049-.0083c-.0383-.0656-.0825-.1412-.1332-.2176-.0233-.0377-.0424-.0649-.0536-.08067l-.004-.00579-.0042-.00571-.0021-.00281c-.212-.30196-.4566-.56522-.7288-.79216l-.0139-.01387-.0307-.03067-.034-.02693c-.6542-.51772-1.4798-.83018-2.3728-.85617l-.011-.00032h-.0109l-26.0186.00022-.0095-.00028-.0134.00007-.0346.00021c-.0007 0-.0015 0-.0022 0-2.2077.00122-3.9926 1.78958-3.9926 3.99268 0 2.2084 1.7908 3.9926 3.9948 3.9926z" fill="#fff" stroke="#fff" stroke-width="1.5"/></svg>

<svg width="75" height="75" viewBox="0 0 75 75" fill="none" xmlns="http://www.w3.org/2000/svg">
<path d="M53.1169 16.2355L33.985 35.3544C33.9839 35.3555 33.9828 35.3565 33.9817 35.3576C33.8703 35.4666 33.7654 35.5819 33.6675 35.7029L16.2712 53.0872L16.2712 36.7381C16.2712 34.5296 14.4805 32.7454 12.2765 32.7454L12.2731 32.7454L12.2238 32.7456L12.2238 32.7456L12.2167 32.7457C10.0341 32.7762 8.27837 34.552 8.27837 36.7383L8.27837 62.28C8.26014 62.4291 8.25 62.5925 8.25 62.7573C8.25 64.9658 10.0408 66.75 12.2449 66.75L12.2504 66.75C12.2755 66.75 12.3299 66.7501 12.3922 66.7449C12.503 66.7407 12.6127 66.7318 12.7212 66.7181H38.278C40.4868 66.7181 42.2729 64.9293 42.2729 62.7254C42.2729 60.517 40.4821 58.7328 38.278 58.7328H21.9182L41.0563 39.6078L41.0566 39.6075C41.1615 39.5025 41.2606 39.3918 41.3534 39.2761L58.7638 21.8776V38.2232C58.7638 40.4319 60.5546 42.2158 62.7587 42.2158H62.8048V42.2159L62.8168 42.2157C64.9938 42.1809 66.75 40.4103 66.75 38.2232V12.2179C66.75 12.1245 66.7447 12.0327 66.7391 11.9556L66.7394 11.9556V11.9166V11.8888L66.7373 11.861C66.7282 11.7393 66.7113 11.6362 66.6985 11.5597C66.6876 11.4858 66.6756 11.4311 66.6637 11.3838L66.6631 11.3839C66.5797 11.0113 66.4523 10.6858 66.2963 10.3865L66.2947 10.3872C66.2817 10.3624 66.2699 10.3413 66.2593 10.3229L66.2439 10.2969L66.2404 10.2911L66.2397 10.2898L66.2372 10.291L66.2323 10.2827C66.194 10.2171 66.1498 10.1415 66.0991 10.0651C66.0758 10.0274 66.0567 10.0002 66.0455 9.98443L66.0415 9.97864L66.0373 9.97293L66.0352 9.97012C65.8232 9.66816 65.5786 9.4049 65.3064 9.17796L65.2925 9.16409L65.2618 9.13342L65.2278 9.10649C64.5736 8.58877 63.748 8.27631 62.855 8.25032L62.844 8.25L62.8331 8.25L36.8145 8.25022L36.805 8.24994L36.7916 8.25001L36.757 8.25022C36.7563 8.25022 36.7555 8.25022 36.7548 8.25022C34.5471 8.25144 32.7622 10.0398 32.7622 12.2429C32.7622 14.4513 34.553 16.2355 36.757 16.2355L53.1169 16.2355Z" fill="white" stroke="white" stroke-width="1.5"/>
</svg>
